X:10
T:Graf Spey
I:abc2nwc
R:reel
M:4/4
L:1/8
K:D
FEDE FA~A2|BAdA BAdA|FEDE FA~A2|BAdA FE E2:|
|fgfe dcdB|AF~F2 ABde|fgfe dcdB|AFdF FE E2|
fgfe dcdB|AF~F2ABde|fbba fafe|dBAF FE E2|]
|:fa~a2 afea|fbba ~b3a|fafe dcde|fbba faeg:|
|:fddc dBAF|ABde dBAF|ABde fded|BAdF FE E2:|
fada fada|gbeb gbeb|fada fadc|Bcde fe~e2|
fb~b2 afge|fdec dBAF|ABde fded|BAdF FE E2|]
